resources/haticons/SVG/webpack.svg

<!-- Generated by IcoMoon.io -->
<svg version="1.1" xmlns="http://www.w3.org/2000/svg" width="24" height="24" viewBox="0 0 24 24">
<title>webpack</title>
<path fill="#8dd6f9" d="M21.016 18.12l-8.665 4.88v-3.801l5.399-2.957zM21.608 17.586v-10.205l-3.171 1.822v6.559zM2.926 18.12l8.665 4.88v-3.801l-5.399-2.957zM2.333 17.586v-10.205l3.171 1.822v6.559zM2.704 6.72l8.886-5.006v3.675l-5.736 3.142zM21.237 6.72l-8.886-5.006v3.675l5.736 3.143zM11.591 18.335l-5.326-2.916v-5.777l5.326 3.062zM12.351 18.335l5.326-2.916v-5.777l-5.326 3.062zM6.625 8.973l5.347-2.928 5.347 2.928-5.347 3.074z"></path>
</svg>

<svg xmlns="http://www.w3.org/2000/svg" width="24" height="24"><path fill="#8dd6f9" d="M21.016 18.12L12.351 23v-3.801l5.399-2.957zm.592-.534V7.381l-3.171 1.822v6.559zm-18.682.534L11.591 23v-3.801l-5.399-2.957zm-.593-.534V7.381l3.171 1.822v6.559zM2.704 6.72l8.886-5.006v3.675L5.854 8.531zm18.533 0l-8.886-5.006v3.675l5.736 3.143zm-9.646 11.615l-5.326-2.916V9.642l5.326 3.062zm.76 0l5.326-2.916V9.642l-5.326 3.062zM6.625 8.973l5.347-2.928 5.347 2.928-5.347 3.074z"/></svg>
